udata_front/theme/gouvfr/templates/svg/search/empty.svg

<svg fill="none" height="60" viewBox="0 0 60 60" width="60" xmlns="http://www.w3.org/2000/svg"><rect fill="#232323" height="60" rx="30" width="60"/><path d="m45.4785 26.793-3.5644-8.6914c-.2442-.5371-.8789-.9278-1.4649-.9278-.1465 0-.4394.0489-.5859.0977l-5.3223 2.1973c-.7324.2929-1.0742 1.123-.8789 1.8554l-15.625 7.6172c-.4394.1953-.6348.6348-.4883 1.0254l.3907 1.0254-3.125 1.3183c-.2442.0977-.4395.4395-.4395.7325 0 .0488 0 .1953.0488.2929l.9766 2.3438c.0976.293.4394.4883.7324.4883.0488 0 .1953 0 .293-.0489l3.125-1.3183.4394 1.0254c.1953.4883.7325.5371 1.0743.4394l6.4941-2.2949c.0976.0977.1465.1465.2441.1953l-2.4902 7.4707v.0977c0 .2441.1465.3906.3906.3906h.7813c.1953 0 .3418-.0977.3906-.2441l2.2949-6.8848c.586.1465 1.0742.1465 1.6113 0l2.295 6.8848c.0488.1464.1953.2441.3906.2441h.7812c.2442 0 .3907-.1465.3907-.3906 0 0 0-.0489 0-.0977l-2.4903-7.4219c.5371-.4882.9278-1.4648.9278-2.1484l4.4433-1.5137c.3418.3907 1.0254.7813 1.8067.4395l5.3222-2.1973c.5371-.1953.9278-.8301.9278-1.416 0-.1953-.0489-.4394-.0977-.5859zm-28.9551 7.5683-.3906-.9277 2.4414-.9766.3906.9278zm13.4766-.8301c-.8789 0-1.5625-.6835-1.5625-1.5624 0-.8301.6836-1.5626 1.5625-1.5626.8301 0 1.5625.7325 1.5625 1.5626-.0488.8789-.7324 1.5624-1.5625 1.5624zm2.7344-2.9785c-.4883-.9277-1.709-1.7089-2.7832-1.7089-1.709 0-3.125 1.416-3.125 3.125 0 .1464.0488.4394.0976.5859l-5.8105 2.0019-1.8555-4.4921 14.9902-7.2754 2.5879 6.2988zm6.0058-.9765-3.6132-8.6914 5.3222-2.1485 3.5645 8.6426z" fill="#fff"/></svg>

<svg aria-hidden="true" width="60" height="60" viewBox="0 0 60 60" fill="none" xmlns="http://www.w3.org/2000/svg">
<rect width="60" height="60" rx="30" fill="#232323"/>
<path d="M45.4785 26.793L41.9141 18.1016C41.6699 17.5645 41.0352 17.1738 40.4492 17.1738C40.3027 17.1738 40.0098 17.2227 39.8633 17.2715L34.541 19.4688C33.8086 19.7617 33.4668 20.5918 33.6621 21.3242L18.0371 28.9414C17.5977 29.1367 17.4023 29.5762 17.5488 29.9668L17.9395 30.9922L14.8145 32.3105C14.5703 32.4082 14.375 32.75 14.375 33.043C14.375 33.0918 14.375 33.2383 14.4238 33.3359L15.4004 35.6797C15.498 35.9727 15.8398 36.168 16.1328 36.168C16.1816 36.168 16.3281 36.168 16.4258 36.1191L19.5508 34.8008L19.9902 35.8262C20.1855 36.3145 20.7227 36.3633 21.0645 36.2656L27.5586 33.9707C27.6562 34.0684 27.7051 34.1172 27.8027 34.166L25.3125 41.6367C25.3125 41.6855 25.3125 41.7344 25.3125 41.7344C25.3125 41.9785 25.459 42.125 25.7031 42.125H26.4844C26.6797 42.125 26.8262 42.0273 26.875 41.8809L29.1699 34.9961C29.7559 35.1426 30.2441 35.1426 30.7812 34.9961L33.0762 41.8809C33.125 42.0273 33.2715 42.125 33.4668 42.125H34.248C34.4922 42.125 34.6387 41.9785 34.6387 41.7344C34.6387 41.7344 34.6387 41.6855 34.6387 41.6367L32.1484 34.2148C32.6855 33.7266 33.0762 32.75 33.0762 32.0664L37.5195 30.5527C37.8613 30.9434 38.5449 31.334 39.3262 30.9922L44.6484 28.7949C45.1855 28.5996 45.5762 27.9648 45.5762 27.3789C45.5762 27.1836 45.5273 26.9395 45.4785 26.793ZM16.5234 34.3613L16.1328 33.4336L18.5742 32.457L18.9648 33.3848L16.5234 34.3613ZM30 33.5312C29.1211 33.5312 28.4375 32.8477 28.4375 31.9688C28.4375 31.1387 29.1211 30.4062 30 30.4062C30.8301 30.4062 31.5625 31.1387 31.5625 31.9688C31.5137 32.8477 30.8301 33.5312 30 33.5312ZM32.7344 30.5527C32.2461 29.625 31.0254 28.8438 29.9512 28.8438C28.2422 28.8438 26.8262 30.2598 26.8262 31.9688C26.8262 32.1152 26.875 32.4082 26.9238 32.5547L21.1133 34.5566L19.2578 30.0645L34.248 22.7891L36.8359 29.0879L32.7344 30.5527ZM38.7402 29.5762L35.127 20.8848L40.4492 18.7363L44.0137 27.3789L38.7402 29.5762Z" fill="white"/>
</svg>
